build/images/fb-icons/seller.svg

<svg xmlns="http://www.w3.org/2000/svg" preserveAspectRatio="xMidYMid" width="22" height="16" viewBox="0 0 22 16"><defs><style>.cls-1{fill:#646464;fill-rule:evenodd}</style></defs><path d="M20.103 7.057a.211.211 0 0 1 .004.052v8.41c0 .264-.242.481-.539.481H2.427c-.296 0-.539-.217-.539-.481v-8.47C.778 6.612 0 5.625 0 4.474c0-.085.027-.165.072-.237L3.34.245A.545.545 0 0 1 3.807 0h14.381c.193 0 .373.096.467.245l3.273 3.992a.413.413 0 0 1 .072.237c0 1.155-.782 2.146-1.897 2.583zM1.115 4.799c.171.866 1.02 1.528 2.041 1.524 1.02 0 1.874-.658 2.045-1.524H1.115zm4.846 5.043v5.195h3.106V9.842c0-.381-.346-.686-.769-.686H6.729c-.427 0-.768.309-.768.686zm.382-5.043c.175.866 1.025 1.524 2.045 1.524 1.021 0 1.87-.658 2.041-1.524H6.343zm5.232 0c.171.866 1.021 1.524 2.041 1.524 1.021 0 1.87-.658 2.041-1.524h-4.082zm5.228.004c.171.866 1.021 1.524 2.041 1.524 1.021 0 1.87-.662 2.046-1.524h-4.087z" class="cls-1"/></svg>

<svg xmlns="http://www.w3.org/2000/svg" xmlns:xlink="http://www.w3.org/1999/xlink" preserveAspectRatio="xMidYMid" width="22" height="16" viewBox="0 0 22 16">
  <defs>
    <style>
      .cls-1 {
        fill: #646464;
        fill-rule: evenodd;
      }
    </style>
  </defs>
  <path d="M20.103,7.057 C20.107,7.073 20.107,7.089 20.107,7.109 L20.107,15.519 C20.107,15.783 19.865,16.000 19.568,16.000 L9.615,16.000 C9.611,16.000 9.606,16.000 9.602,16.000 L5.421,16.000 C5.417,16.000 5.412,16.000 5.408,16.000 L2.427,16.000 C2.131,16.000 1.888,15.783 1.888,15.519 L1.888,7.049 C0.778,6.612 -0.000,5.625 -0.000,4.474 C-0.000,4.389 0.027,4.309 0.072,4.237 L3.340,0.245 C3.434,0.092 3.614,-0.000 3.807,-0.000 L18.188,-0.000 C18.381,-0.000 18.561,0.096 18.655,0.245 L21.928,4.237 C21.977,4.309 22.000,4.389 22.000,4.474 C22.000,5.629 21.218,6.620 20.103,7.057 ZM1.115,4.799 C1.286,5.665 2.135,6.327 3.156,6.323 C4.176,6.323 5.030,5.665 5.201,4.799 L1.115,4.799 ZM5.961,9.842 L5.961,15.037 L9.062,15.037 L9.067,15.037 L9.067,9.842 C9.067,9.461 8.721,9.156 8.298,9.156 L6.729,9.156 C6.302,9.156 5.961,9.465 5.961,9.842 ZM6.343,4.799 C6.518,5.665 7.368,6.323 8.388,6.323 C9.409,6.323 10.258,5.665 10.429,4.799 L6.343,4.799 ZM11.575,4.799 C11.746,5.665 12.596,6.323 13.616,6.323 C14.637,6.323 15.486,5.665 15.657,4.799 L11.575,4.799 ZM16.803,4.803 C16.974,5.669 17.824,6.327 18.844,6.327 C19.865,6.327 20.714,5.665 20.890,4.803 L16.803,4.803 Z" class="cls-1"/>
</svg>
